public/assets/vectors/mongodb.svg

<?xml version="1.0" encoding="UTF-8" standalone="no"?>
<svg
   xmlns:dc="http://purl.org/dc/elements/1.1/"
   xmlns:cc="http://creativecommons.org/ns#"
   xmlns:rdf="http://www.w3.org/1999/02/22-rdf-syntax-ns#"
   xmlns:svg="http://www.w3.org/2000/svg"
   xmlns="http://www.w3.org/2000/svg"
   xmlns:sodipodi="http://sodipodi.sourceforge.net/DTD/sodipodi-0.dtd"
   xmlns:inkscape="http://www.inkscape.org/namespaces/inkscape"
   width="100pt"
   height="100pt"
   viewBox="0 0 100 100"
   version="1.1"
   id="svg13"
   sodipodi:docname="mongodb.svg"
   inkscape:version="0.92.4 (5da689c313, 2019-01-14)">
  <metadata
     id="metadata19">
    <rdf:RDF>
      <cc:Work
         rdf:about="">
        <dc:format>image/svg+xml</dc:format>
        <dc:type
           rdf:resource="http://purl.org/dc/dcmitype/StillImage" />
        <dc:title></dc:title>
      </cc:Work>
    </rdf:RDF>
  </metadata>
  <defs
     id="defs17" />
  <sodipodi:namedview
     pagecolor="#ffffff"
     bordercolor="#666666"
     borderopacity="1"
     objecttolerance="10"
     gridtolerance="10"
     guidetolerance="10"
     inkscape:pageopacity="0"
     inkscape:pageshadow="2"
     inkscape:window-width="1600"
     inkscape:window-height="877"
     id="namedview15"
     showgrid="false"
     inkscape:document-units="pt"
     inkscape:zoom="2.2125"
     inkscape:cx="53.333333"
     inkscape:cy="53.333333"
     inkscape:window-x="-8"
     inkscape:window-y="90"
     inkscape:window-maximized="1"
     inkscape:current-layer="svg13" />
  <g
     id="surface280853"
     transform="matrix(1.2000469,0,0,1.2000469,1.998124,1.998124)">
    <path
       style="fill:#5c3f35;fill-opacity:1;fill-rule:nonzero;stroke:none"
       d="m 70,28.832031 c 0,34.167969 -30,44.5 -30,44.5 0,0 -30,-10.332031 -30,-44.5 0,-4.164062 0.332031,-7.664062 0.667969,-10.5 0.5,-4.164062 3.332031,-7.5 7.332031,-8.5 5.167969,-1.5 13.332031,-3.164062 22,-3.164062 8.667969,0 16.832031,1.664062 22.167969,3.164062 4,1 6.832031,4.5 7.332031,8.5 0.167969,2.835938 0.5,6.5 0.5,10.5 z m 0,0"
       id="path2"
       inkscape:connector-curvature="0" />
    <path
       style="fill:#4aae4f;fill-opacity:1;fill-rule:nonzero;stroke:none"
       d="m 40,11.667969 c 8.167969,0 15.832031,1.664062 20.832031,3 2,0.5 3.335938,2.164062 3.667969,4.332031 0.332031,3.167969 0.5,6.5 0.5,9.832031 0,26 -19.167969,36.5 -25,39 -5.832031,-2.664062 -25,-13.164062 -25,-39 C 15,25.5 15.167969,22.167969 15.5,19 c 0.167969,-2.167969 1.667969,-3.832031 3.667969,-4.332031 5,-1.335938 12.664062,-3 20.832031,-3 m 0,-5 c -8.667969,0 -16.832031,1.664062 -22.167969,3.164062 -3.832031,1 -6.832031,4.5 -7.164062,8.5 -0.335938,2.835938 -0.667969,6.5 -0.667969,10.5 0,34.167969 30,44.5 30,44.5 0,0 30,-10.332031 30,-44.5 0,-4.164062 -0.332031,-7.664062 -0.667969,-10.5 -0.5,-4.164062 -3.332031,-7.5 -7.332031,-8.5 -5.167969,-1.5 -13.332031,-3.164062 -22,-3.164062 z m 0,0"
       id="path4"
       inkscape:connector-curvature="0" />
    <path
       style="fill:#dcebc7;fill-opacity:1;fill-rule:nonzero;stroke:none"
       d="m 38.332031,46.667969 h 3.335938 V 60 h -3.335938 z m 0,0"
       id="path6"
       inkscape:connector-curvature="0" />
    <path
       style="fill:#4aae4f;fill-opacity:1;fill-rule:nonzero;stroke:none"
       d="M 40,16.667969 C 40,16.667969 30,25 30,38.332031 30,47 35.5,52.5 38.332031,55 L 40,50 41.667969,55 C 44.5,52.5 50,47 50,38.332031 50,25 40,16.667969 40,16.667969 Z m 0,0"
       id="path8"
       inkscape:connector-curvature="0" />
    <path
       style="fill:#7fc782;fill-opacity:1;fill-rule:nonzero;stroke:none"
       d="M 40,16.667969 C 40,16.667969 30,25 30,38.332031 30,47 35.5,52.5 38.332031,55 L 40,50 Z m 0,0"
       id="path10"
       inkscape:connector-curvature="0" />
  </g>
</svg>

<?xml version="1.0" encoding="UTF-8"?>
<svg xmlns="http://www.w3.org/2000/svg" xmlns:xlink="http://www.w3.org/1999/xlink" width="80pt" height="80pt" viewBox="0 0 80 80" version="1.1">
<g id="surface280853">
<path style=" stroke:none;fill-rule:nonzero;fill:rgb(36.470588%,25.098039%,21.568627%);fill-opacity:1;" d="M 70 28.832031 C 70 63 40 73.332031 40 73.332031 C 40 73.332031 10 63 10 28.832031 C 10 24.667969 10.332031 21.167969 10.667969 18.332031 C 11.167969 14.167969 14 10.832031 18 9.832031 C 23.167969 8.332031 31.332031 6.667969 40 6.667969 C 48.667969 6.667969 56.832031 8.332031 62.167969 9.832031 C 66.167969 10.832031 69 14.332031 69.5 18.332031 C 69.667969 21.167969 70 24.832031 70 28.832031 Z M 70 28.832031 "/>
<path style=" stroke:none;fill-rule:nonzero;fill:rgb(29.803922%,68.627451%,31.372549%);fill-opacity:1;" d="M 40 11.667969 C 48.167969 11.667969 55.832031 13.332031 60.832031 14.667969 C 62.832031 15.167969 64.167969 16.832031 64.5 19 C 64.832031 22.167969 65 25.5 65 28.832031 C 65 54.832031 45.832031 65.332031 40 67.832031 C 34.167969 65.167969 15 54.667969 15 28.832031 C 15 25.5 15.167969 22.167969 15.5 19 C 15.667969 16.832031 17.167969 15.167969 19.167969 14.667969 C 24.167969 13.332031 31.832031 11.667969 40 11.667969 M 40 6.667969 C 31.332031 6.667969 23.167969 8.332031 17.832031 9.832031 C 14 10.832031 11 14.332031 10.667969 18.332031 C 10.332031 21.167969 10 24.832031 10 28.832031 C 10 63 40 73.332031 40 73.332031 C 40 73.332031 70 63 70 28.832031 C 70 24.667969 69.667969 21.167969 69.332031 18.332031 C 68.832031 14.167969 66 10.832031 62 9.832031 C 56.832031 8.332031 48.667969 6.667969 40 6.667969 Z M 40 6.667969 "/>
<path style=" stroke:none;fill-rule:nonzero;fill:rgb(86.27451%,92.941176%,78.431373%);fill-opacity:1;" d="M 38.332031 46.667969 L 41.667969 46.667969 L 41.667969 60 L 38.332031 60 Z M 38.332031 46.667969 "/>
<path style=" stroke:none;fill-rule:nonzero;fill:rgb(29.803922%,68.627451%,31.372549%);fill-opacity:1;" d="M 40 16.667969 C 40 16.667969 30 25 30 38.332031 C 30 47 35.5 52.5 38.332031 55 L 40 50 L 41.667969 55 C 44.5 52.5 50 47 50 38.332031 C 50 25 40 16.667969 40 16.667969 Z M 40 16.667969 "/>
<path style=" stroke:none;fill-rule:nonzero;fill:rgb(50.588235%,78.039216%,51.764706%);fill-opacity:1;" d="M 40 16.667969 C 40 16.667969 30 25 30 38.332031 C 30 47 35.5 52.5 38.332031 55 L 40 50 Z M 40 16.667969 "/>
</g>
</svg>
